X: 27766
T: Morning Thrush, The
R: reel
M: 4/4
K: Dmajor
|:ag|f2ef d2AF|AdAF A2 (3gfe|dAAF DFF2|ABdf ef (3gfe|
dAAF dAAF|BAFA dADE|ED (3FGA defa|afef d2:|
|:(3ABc|dgfe faaf|g3e f3e|dcde faaf|gefd egfe|
dgfe faa2|bgaf ecdB|ADFA defa|afef d2:|
|:(3ABc|dAAF BdAF|D2 DB ADFA|dF F2 dFAF|ABdf ef (3gfe|
dAAF DF F2|AdAF D F3|ABde fagb|afef d2:|

